lib/svgs/team-camera.svg

<?xml version="1.0" encoding="UTF-8"?>
<svg width="16px" height="16px" viewBox="0 0 16 16" version="1.1" xmlns="http://www.w3.org/2000/svg" xmlns:xlink="http://www.w3.org/1999/xlink">
    <!-- Generator: sketchtool 51.3 (57544) - http://www.bohemiancoding.com/sketch -->
    <title>team/team-camera</title>
    <desc>Created with sketchtool.</desc>
    <defs></defs>
    <g id="Icons" stroke="none" stroke-width="1" fill="none" fill-rule="evenodd">
        <g id="Web" transform="translate(-147.000000, -2394.000000)" fill="#000000">
            <g id="team/team-camera" transform="translate(147.000000, 2394.000000)">
                <path d="M15.3333333,2.80004883 L11.6666667,2.80004883 L10.5333333,1.06671549 C10.4,0.933382161 10.2,0.800048828 10,0.800048828 L6,0.800048828 C5.8,0.800048828 5.6,0.933382161 5.46666667,1.06671549 L4.33333333,2.80004883 L0.666666667,2.80004883 C0.266666667,2.80004883 0,3.06671549 0,3.46671549 L0,14.8000488 C0,15.2000488 0.266666667,15.4667155 0.666666667,15.4667155 L15.3333333,15.4667155 C15.7333333,15.4667155 16,15.2000488 16,14.8000488 L16,3.46671549 C16,3.06671549 15.7333333,2.80004883 15.3333333,2.80004883 M8,12.1333822 C6.13333333,12.1333822 4.66666667,10.6667155 4.66666667,8.80004883 C4.66666667,6.93338216 6.13333333,5.46671549 8,5.46671549 C9.86666667,5.46671549 11.3333333,6.93338216 11.3333333,8.80004883 C11.3333333,10.6667155 9.86666667,12.1333822 8,12.1333822 M0.666666667,0.800048828 L3.33333333,0.800048828 L3.33333333,2.13338216 L0.666666667,2.13338216 L0.666666667,0.800048828" id="Shape"></path>
            </g>
        </g>
    </g>
</svg>

<svg xmlns="http://www.w3.org/2000/svg" viewBox="0 0 16 16">
    <path d="M15.333 2.8h-3.666l-1.134-1.733C10.4.933 10.2.8 10 .8H6c-.2 0-.4.133-.533.267L4.333 2.8H.667c-.4 0-.667.267-.667.667V14.8c0 .4.267.667.667.667h14.666c.4 0 .667-.267.667-.667V3.467c0-.4-.267-.667-.667-.667M8 12.133A3.301 3.301 0 0 1 4.667 8.8 3.301 3.301 0 0 1 8 5.467 3.301 3.301 0 0 1 11.333 8.8 3.301 3.301 0 0 1 8 12.133M.667.8h2.666v1.333H.667V.8"/>
</svg>
